X:82
T:La Barbentanaise
O:France
A:Provence
C:Trad.
R:Farandole
Z:Transcrit et/ou corrig? par Michel BELLON - 2005-03-06
Z:Pour toute observation mailto:galouvielle@free.fr
M:6/8
L:1/8
K:Bb
de|f2d B2G|F3- FAB|c2f g2f|(f3d) de|f2d B2G|F3-F BA|GcB Adc|B3-B2z||
[K:F]F3-F AB | c3-c cf | eGe eGe | c3 dcA | F3-F GB | c3-c BA | Ged cBG | F3- fz2 |
[K:Eb]e3 GBe | d3-d dc | B2c A2B|G3 Bcd|e3 GBe|d3 fec | B=AB =Bcd | e3 e ||
<end>
<start>
